X: 3167
T: The FOREST OF GARTH
C: Jos Lowe
Q: "Strathspey."
R: Strathspey.
%R: strathspey
B: James Kerr "Merry Melodies" v.3 p.20 #167
Z: 2016 John Chambers <jc:trillian.mit.edu>
%%slurgraces yes
%%graceslurs yes
M: C
L: 1/8
K: Dm
uF |\
D<d- d>^c d2(d>e) | c>de>d c<CC>E |\
D<d- d>^c d2d>e | c>Ac>E {FE}D2D ::\
e |\
f<dd>e c>de<a |
f<dd>e f>df<a |\
[1 f<dd>e c>de<a | (3fed (3ed^c d2-d :|\
[2 c>dc>G E<C E>G | (3AGF (3GFE D2-D |]

%%sep 1 1 500
%%sep 1 1 500

